Numix-GalliumOS/16/devices/pda.svg

<?xml version="1.0" encoding="UTF-8" standalone="no"?>
<svg
   xmlns:dc="http://purl.org/dc/elements/1.1/"
   xmlns:cc="http://creativecommons.org/ns#"
   xmlns:rdf="http://www.w3.org/1999/02/22-rdf-syntax-ns#"
   xmlns:svg="http://www.w3.org/2000/svg"
   xmlns="http://www.w3.org/2000/svg"
   xmlns:sodipodi="http://sodipodi.sourceforge.net/DTD/sodipodi-0.dtd"
   xmlns:inkscape="http://www.inkscape.org/namespaces/inkscape"
   width="16"
   height="16"
   viewBox="0 0 16 16"
   id="svg3326"
   version="1.1"
   inkscape:version="0.91 r"
   sodipodi:docname="pda.svg">
  <metadata
     id="metadata3334">
    <rdf:RDF>
      <cc:Work
         rdf:about="">
        <dc:format>image/svg+xml</dc:format>
        <dc:type
           rdf:resource="http://purl.org/dc/dcmitype/StillImage" />
        <dc:title></dc:title>
      </cc:Work>
    </rdf:RDF>
  </metadata>
  <defs
     id="defs3332" />
  <sodipodi:namedview
     pagecolor="#ffffff"
     bordercolor="#666666"
     borderopacity="1"
     objecttolerance="10"
     gridtolerance="10"
     guidetolerance="10"
     inkscape:pageopacity="0"
     inkscape:pageshadow="2"
     inkscape:window-width="1920"
     inkscape:window-height="1056"
     id="namedview3330"
     showgrid="true"
     inkscape:zoom="20.85965"
     inkscape:cx="5.4704257"
     inkscape:cy="7.150358"
     inkscape:window-x="0"
     inkscape:window-y="24"
     inkscape:window-maximized="1"
     inkscape:current-layer="svg3326">
    <inkscape:grid
       type="xygrid"
       id="grid4133" />
  </sodipodi:namedview>
  <rect
     style="opacity:1;fill:#5aa9e1;fill-opacity:1;fill-rule:nonzero;stroke:none;stroke-width:0.30000001;stroke-linecap:round;stroke-linejoin:miter;stroke-miterlimit:4;stroke-dasharray:none;stroke-dashoffset:0;stroke-opacity:1"
     id="rect4166"
     width="9.69697"
     height="10.666667"
     x="3.1515157"
     y="0.96967024" />
  <rect
     style="opacity:1;fill:#a9aeb7;fill-opacity:1;fill-rule:nonzero;stroke:none;stroke-width:0.30000001;stroke-linecap:round;stroke-linejoin:miter;stroke-miterlimit:4;stroke-dasharray:none;stroke-dashoffset:0;stroke-opacity:1"
     id="rect4157"
     width="9.69697"
     height="3.8787878"
     x="3.1515157"
     y="11.393912"
     rx="0.99999994"
     ry="0.99999994" />
  <path
     style="fill:#fdf6e3;fill-opacity:0.18823529;fill-rule:evenodd;stroke:none;stroke-width:1px;stroke-linecap:butt;stroke-linejoin:miter;stroke-opacity:1"
     d="m 10.5,0.5 -5.8939393,11.136337 8.2424243,0 0,-11.136337 z"
     id="path4168"
     inkscape:connector-curvature="0"
     sodipodi:nodetypes="ccccc" />
  <g
     transform="matrix(0.48484848,0,0,0.48484848,-3.6363636,-490.35743)"
     id="g3038"
     style="fill:#073642;fill-opacity:1">
    <path
       style="color:#000000;line-height:normal;fill:#073642;fill-opacity:1"
       d="M 3.7285156 0 C 3.333993 0 3 0.33204057 3 0.7265625 L 3 14.787109 C 3 14.820563 3.0369504 15.114988 3.1972656 15.287109 C 3.3575798 15.459279 3.5752017 15.571373 3.8945312 15.666016 C 4.5331913 15.8553 5.6463201 16 7.8496094 16 L 8.1503906 16 C 10.113939 16 11.231844 15.846428 11.908203 15.666016 C 12.246382 15.575786 12.475567 15.48396 12.650391 15.363281 C 12.825221 15.242603 13 15.112394 13 14.787109 L 13 0.7265625 C 13 0.33204057 12.666007 0 12.271484 0 L 3.7285156 0 z M 4 1 L 12 1 L 12 11 L 4 11 L 4 1 z M 4.5 11.5 A 0.5 0.5 0 0 1 5 12 A 0.5 0.5 0 0 1 4.5 12.5 A 0.5 0.5 0 0 1 4 12 A 0.5 0.5 0 0 1 4.5 11.5 z M 5.75 11.5 A 0.5 0.5 0 0 1 6.25 12 A 0.5 0.5 0 0 1 5.75 12.5 A 0.5 0.5 0 0 1 5.25 12 A 0.5 0.5 0 0 1 5.75 11.5 z M 7 11.5 A 0.5 0.5 0 0 1 7.5 12 A 0.5 0.5 0 0 1 7 12.5 A 0.5 0.5 0 0 1 6.5 12 A 0.5 0.5 0 0 1 7 11.5 z M 9 11.5 A 0.5 0.5 0 0 1 9.5 12 A 0.5 0.5 0 0 1 9 12.5 A 0.5 0.5 0 0 1 8.5 12 A 0.5 0.5 0 0 1 9 11.5 z M 10.25 11.5 A 0.5 0.5 0 0 1 10.75 12 A 0.5 0.5 0 0 1 10.25 12.5 A 0.5 0.5 0 0 1 9.75 12 A 0.5 0.5 0 0 1 10.25 11.5 z M 11.5 11.5 A 0.5 0.5 0 0 1 12 12 A 0.5 0.5 0 0 1 11.5 12.5 A 0.5 0.5 0 0 1 11 12 A 0.5 0.5 0 0 1 11.5 11.5 z M 4.5 13 A 0.5 0.5 0 0 1 5 13.5 A 0.5 0.5 0 0 1 4.5 14 A 0.5 0.5 0 0 1 4 13.5 A 0.5 0.5 0 0 1 4.5 13 z M 5.75 13 A 0.5 0.5 0 0 1 6.25 13.5 A 0.5 0.5 0 0 1 5.75 14 A 0.5 0.5 0 0 1 5.25 13.5 A 0.5 0.5 0 0 1 5.75 13 z M 8 13 C 8.5522847 13 9 13.447715 9 14 C 9 14.552285 8.5522847 15 8 15 C 7.4477153 15 7 14.552285 7 14 C 7 13.447715 7.4477153 13 8 13 z M 10.25 13 A 0.5 0.5 0 0 1 10.75 13.5 A 0.5 0.5 0 0 1 10.25 14 A 0.5 0.5 0 0 1 9.75 13.5 A 0.5 0.5 0 0 1 10.25 13 z M 11.5 13 A 0.5 0.5 0 0 1 12 13.5 A 0.5 0.5 0 0 1 11.5 14 A 0.5 0.5 0 0 1 11 13.5 A 0.5 0.5 0 0 1 11.5 13 z "
       transform="matrix(2.0625,0,0,2.0625,7.5,1011.3622)"
       id="path3040" />
  </g>
  <path
     style="fill:#eee8d5;fill-opacity:0.1485944;stroke:none"
     d="m 11,15.835938 c 0.35871,-0.0509 0.673131,-0.107219 0.908203,-0.169922 0.03589,-0.0096 0.0583,-0.01965 0.0918,-0.0293 C 11.999997,10.424477 12,5.2122387 12,0 l -1,0 c 0,5.278646 0,10.557292 0,15.835938 z"
     id="rect3767-3"
     inkscape:connector-curvature="0"
     sodipodi:nodetypes="cccccc" />
  <g
     style="fill:#073642;fill-opacity:1"
     id="g4204"
     transform="matrix(0.48484848,0,0,0.48484848,-3.6363636,-490.35743)" />
</svg>

<svg xmlns="http://www.w3.org/2000/svg" viewBox="0 0 16 16">
 <rect width="9.697" height="10.667" x="3.152" y="0.97" style="fill:#5aa9e1;opacity:1;fill-opacity:1;stroke:none;fill-rule:nonzero"/>
 <rect width="9.697" height="3.879" x="3.152" y="11.394" rx="1" style="fill:#a9aeb7;opacity:1;fill-opacity:1;stroke:none;fill-rule:nonzero"/>
 <path d="m 10.5 0.5 -5.894 11.136 8.242 0 0 -11.136 z" style="fill:#fdf6e3;fill-opacity:0.188;stroke:none;fill-rule:evenodd"/>
 <g transform="matrix(0.48484848,0,0,0.48484848,-3.6363636,-490.35743)" style="fill:#073642;fill-opacity:1">
  <path d="m 3.729 0 c -0.395 0 -0.729 0.332 -0.729 0.727 l 0 14.06 c 0 0.033 0.037 0.328 0.197 0.5 c 0.16 0.172 0.378 0.284 0.697 0.379 c 0.639 0.189 1.752 0.334 3.955 0.334 l 0.301 0 c 1.964 0 3.081 -0.154 3.758 -0.334 c 0.338 -0.09 0.567 -0.182 0.742 -0.303 c 0.175 -0.121 0.35 -0.251 0.35 -0.576 l 0 -14.06 c 0 -0.395 -0.334 -0.727 -0.729 -0.727 l -8.543 0 z m 0.271 1 l 8 0 l 0 10 l -8 0 l 0 -10 z m 0.5 10.5 a 0.5 0.5 0 0 1 0.5 0.5 a 0.5 0.5 0 0 1 -0.5 0.5 a 0.5 0.5 0 0 1 -0.5 -0.5 a 0.5 0.5 0 0 1 0.5 -0.5 z m 1.25 0 a 0.5 0.5 0 0 1 0.5 0.5 a 0.5 0.5 0 0 1 -0.5 0.5 a 0.5 0.5 0 0 1 -0.5 -0.5 a 0.5 0.5 0 0 1 0.5 -0.5 z m 1.25 0 a 0.5 0.5 0 0 1 0.5 0.5 a 0.5 0.5 0 0 1 -0.5 0.5 a 0.5 0.5 0 0 1 -0.5 -0.5 a 0.5 0.5 0 0 1 0.5 -0.5 z m 2 0 a 0.5 0.5 0 0 1 0.5 0.5 a 0.5 0.5 0 0 1 -0.5 0.5 a 0.5 0.5 0 0 1 -0.5 -0.5 a 0.5 0.5 0 0 1 0.5 -0.5 z m 1.25 0 a 0.5 0.5 0 0 1 0.5 0.5 a 0.5 0.5 0 0 1 -0.5 0.5 a 0.5 0.5 0 0 1 -0.5 -0.5 a 0.5 0.5 0 0 1 0.5 -0.5 z m 1.25 0 a 0.5 0.5 0 0 1 0.5 0.5 a 0.5 0.5 0 0 1 -0.5 0.5 a 0.5 0.5 0 0 1 -0.5 -0.5 a 0.5 0.5 0 0 1 0.5 -0.5 z m -7 1.5 a 0.5 0.5 0 0 1 0.5 0.5 a 0.5 0.5 0 0 1 -0.5 0.5 a 0.5 0.5 0 0 1 -0.5 -0.5 a 0.5 0.5 0 0 1 0.5 -0.5 z m 1.25 0 a 0.5 0.5 0 0 1 0.5 0.5 a 0.5 0.5 0 0 1 -0.5 0.5 a 0.5 0.5 0 0 1 -0.5 -0.5 a 0.5 0.5 0 0 1 0.5 -0.5 z m 2.25 0 c 0.552 0 1 0.448 1 1 c 0 0.552 -0.448 1 -1 1 c -0.552 0 -1 -0.448 -1 -1 c 0 -0.552 0.448 -1 1 -1 z m 2.25 0 a 0.5 0.5 0 0 1 0.5 0.5 a 0.5 0.5 0 0 1 -0.5 0.5 a 0.5 0.5 0 0 1 -0.5 -0.5 a 0.5 0.5 0 0 1 0.5 -0.5 z m 1.25 0 a 0.5 0.5 0 0 1 0.5 0.5 a 0.5 0.5 0 0 1 -0.5 0.5 a 0.5 0.5 0 0 1 -0.5 -0.5 a 0.5 0.5 0 0 1 0.5 -0.5 z" transform="matrix(2.0625,0,0,2.0625,7.5,1011.3622)" style="color:#000"/>
 </g>
 <path d="m 11 15.836 c 0.359 -0.051 0.673 -0.107 0.908 -0.17 0.036 -0.01 0.058 -0.02 0.092 -0.029 c 0 -5.212 0 -10.424 0 -15.637 l -1 0 c 0 5.279 0 10.557 0 15.836 z" style="fill:#eee8d5;fill-opacity:0.149;stroke:none"/>
</svg>
